X:240
T:Korolenko's Backyard
C:Jean-Paul Loyer
Z:robin.beech@mcgill.ca
R:jig
M:6/8
L:1/8
K:G
BA | G2G GFG | D2D DBA | G2G GFG | GEE EAB | A3 ABA | d2d dcB | A2A AGA | BGE DBA |
G2G GFG | D2D DBA | G2G GFG | GEE EAB | c3 cBA | d2d dcB | AGE DBA |1 GDD D: |2 G2G G2D |:
EEE E2D | E2F G2E | D2G  FGA | BGB dBG | EEE E2D | E2F G2E | DGG FGA |1 BGF G2F :| BGF G |]
